X: 190
T: SLIP JIG: Boys of Ballisodare
C: C: Trad.; S: Various
C: Set Leaders: Andrey, Anton
Z: Anton Zille ed., Oleg Naumov arr.; Will Harmon at The Session
N: https://thesession.org/members/26966/sets/96719
R: Slip Jig
M: 9/8
L: 1/8
Q: 3/8=114
K: Gmaj
|:"G"D2G G2A B2d|"C"ege d2e g3|"G"D2G G2B d2B|"C"AGA B2G "D"E2G|
"G"D2G G2A B2d|"C"ege d2e "D"g2a|"Em"b2a g2e d2B|"C"AGA B2G "D"E2G:||
|:"G"B2d d2B d2B|"D"d3 def g3|"C"B2d d2B d2B|"C"AGA B2G "D"E2G|
"G (Am)"B2d d2B d2B|"D (Bm)"d3 def g2a|"Em"b2a g2e d2B|"C"AGA B2G "D"E2G:||

